X: 37223
T: Sister, The
R: reel
M: 4/4
K: Dmajor
ez Ae ez Ae|efed BA A2|d2 Ad fede|f2 fg fe e2|
ez Ae ez Ae|efed BA A2|(3Bcd ge fded|BA A2 Bddf|
f2 af g2 ef|g2 ed cA A2|g2 af g2 eg|fgaf g2 eg|
fgaf g2 eg|a2 ed cA A2|fgaf g2 eg|fgaf gedB|

